X:380
T: Trooper [The]
S: "Johnny O'Leary of Sliabh Luachra" (#100)
Z: B.Black
L: 1/8
M: 12/8
Q: 240
R: slide
K: G
d|e/f/ge dBA BEF G/F/GA|BAB def gfg agf|
ege dBA BEF G/F/GA|BAB dBd e3 e2 :|
d|: e2e ede f/g/ag fed|eff efg a2a f/g/af|
efe ede f/g/ag fed|1 BAB def g3 faf :|2\
BAB def g2b agf||
w: %blank line
w: %blank line
P: Alternate m1 on repeat:
gfe dBA BEF G/F/GA|

